assets/icons/qvision/domain_disabled.svg

<svg width="24" height="24" viewBox="0 0 24 24" fill="none" xmlns="http://www.w3.org/2000/svg">
<g clip-path="url(#clip0_147_1814)">
<path d="M7.99998 5H9.99998V7H9.09998L12 9.9V9H20V17.9L22 19.9V7H12V3H5.09998L7.99998 5.9V5ZM16 11H18V13H16V11ZM1.29998 1.8L0.0999756 3.1L1.99998 5V21H18L21 24L22.3 22.7L1.29998 1.8ZM5.99998 19H3.99998V17H5.99998V19ZM5.99998 15H3.99998V13H5.99998V15ZM5.99998 11H3.99998V9H5.99998V11ZM9.99998 19H7.99998V17H9.99998V19ZM9.99998 15H7.99998V13H9.99998V15ZM12 19V17H14L16 19H12Z" fill="#323232"/>
</g>
<defs>
<clipPath id="clip0_147_1814">
<rect width="24" height="24" fill="white"/>
</clipPath>
</defs>
</svg>

<svg xmlns="http://www.w3.org/2000/svg" height="24" viewBox="0 0 24 24" width="24"><path d="M0 0h24v24H0V0zm0 0h24v24H0V0z" fill="none"/><path d="M8 5h2v2h-.9L12 9.9V9h8v8.9l2 2V7H12V3H5.1L8 5.9zm8 6h2v2h-2zM1.3 1.8L.1 3.1 2 5v16h16l3 3 1.3-1.3-21-20.9zM6 19H4v-2h2v2zm0-4H4v-2h2v2zm0-4H4V9h2v2zm4 8H8v-2h2v2zm0-4H8v-2h2v2zm2 4v-2h2l2 2h-4z"/></svg>
